X:207
T:Weatherby Grange. VWMLa.207
%%VWML:Anon2-3049-p129-0
F:http://www.vwml.org/record/Anon2/3049/p129
S:Anon. MS, late 18thC, Vaughan Williams Mem. Library
N:Wetherby, Yorkshire..
O:England;Yorkshire
Z:vmp/efdss.Simon Wilson. Reviewed PJH 2008.
M:2/4
L:1/8
Q:1/4=120
K:D
d2fd|a2fd|B2cd|(c/d/e) cA|\
d2fd|({fg}a2)fd|BecA|d2d2:|
|:(AB/A/) FA|GBE2|(FA/F/) DF|(E/F/G/E/)A,2|\
(AB/A/) FA|GBE2|(AB/A/) .B.c|d2D2:|
